X: 1504
T: Green Grow The Rushes Oh
B: australian traditional tunes wiki
M:4/4
R: Highland Schottische
Q: 1/4=100
K:G
V:1 
G|:"G"G2G>A B<GG2|"Am"A>G A>B c>de2|"C"c>d (3edc "G"B>cd2|"Am"A>c B>A "Em"G<EE2:|
|:"G"g2g>a g<dd2|"Am"e>a a>b a<g e>f|"C"g>a g>e "G"d<BB2|"Am"A>c B>A "Em"|G>EE2:|
% abcbook-tune_id 6342d53a268d617579d959e2


% abcbook-boost 0
% abcbook-tablature 
% abcbook-transpose 
% abcbook-lastupdated 1665324368291
% abcbook-soundfonts 
% abcbook-repeats 1
% NFF Book 2009

